www/assets/icons/airline_stops.svg

<svg xmlns="http://www.w3.org/2000/svg" width="24" height="24" viewBox="0 0 24 24" fill='currentColor'><path d="M18.71 9.21c-2.28 1.57-4.76 4.09-5.21 7.79h2v2h-6v-2h2c-.5-4.5-4.37-8-9-8V7c4.39 0 8.22 2.55 10 6.3 1.13-2.43 2.99-4.25 4.78-5.52L14.5 5h7v7z"/></svg>

<svg width="24" height="24" viewBox="0 0 24 24" xmlns="http://www.w3.org/2000/svg" fill='currentColor'><path d="M18.71 9.21C16.43 10.78 13.95 13.3 13.5 17H15.5V19H9.5V17H11.5C11 12.5 7.13 9 2.5 9V7C6.89 7 10.72 9.55 12.5 13.3C13.63 10.87 15.49 9.05 17.28 7.78L14.5 5H21.5V12L18.71 9.21Z"/></svg>
